icon-themes/breeze_svg/cmd/lc_insertsymbol.svg

<svg viewBox="0 0 24 24" xmlns="http://www.w3.org/2000/svg"><path d="m11 4a8 6.9999976 0 0 0 -8 7 8 6.9999976 0 0 0 4.03125 6.0625l.3125.9375h-3.34375c-.79426-.21284-.96696-.66026-1-.875v2.875h6.40625v-2-.40625l-.53125-.21875a4.9999757 6.4999814 0 0 1 -2.875-5.875 4.9999757 6.4999814 0 0 1 5-6.5 4.9999757 6.4999814 0 0 1 5 6.5 4.9999757 6.4999814 0 0 1 -2.875 5.875l-.53125.21875v.40625 2h2.40625v-2h-.34375l.3125-.9375a8 6.9999976 0 0 0 4.03125-6.0625 8 6.9999976 0 0 0 -8-7zm8 13.125c-.0331.21474-.20574.66216-1 .875h1z" fill="#4d4d4d"/><path d="m18 16v2h-2v1h2v2h1v-2h2v-1h-2v-2z" fill="#1d99f3"/></svg>

<svg xmlns="http://www.w3.org/2000/svg" viewBox="0 0 24 24">
 <path 
     style="fill:#4d4d4d" 
     d="M 11 4 A 8 6.9999976 0 0 0 3 11 A 8 6.9999976 0 0 0 7.03125 17.0625 L 7.34375 18 L 4 18 C 3.20574 17.78716 3.03304 17.33974 3 17.125 L 3 20 L 9.40625 20 L 9.40625 18 L 9.40625 17.59375 L 8.875 17.375 A 4.9999757 6.4999814 0 0 1 6 11.5 A 4.9999757 6.4999814 0 0 1 11 5 A 4.9999757 6.4999814 0 0 1 16 11.5 A 4.9999757 6.4999814 0 0 1 13.125 17.375 L 12.59375 17.59375 L 12.59375 18 L 12.59375 20 L 15 20 L 15 18 L 14.65625 18 L 14.96875 17.0625 A 8 6.9999976 0 0 0 19 11 A 8 6.9999976 0 0 0 11 4 z M 19 17.125 C 18.9669 17.33974 18.79426 17.78716 18 18 L 19 18 L 19 17.125 z "
     />
 <path 
     style="fill:#1d99f3" 
     d="M 18 16 L 18 18 L 16 18 L 16 19 L 18 19 L 18 21 L 19 21 L 19 19 L 21 19 L 21 18 L 19 18 L 19 16 L 18 16 z "
     />
 </svg>
